third_party/noto/noto_2/emoji_u1f3a8.svg

<svg enable-background="new 0 0 128 128" viewBox="0 0 128 128" xmlns="http://www.w3.org/2000/svg" xmlns:xlink="http://www.w3.org/1999/xlink"><radialGradient id="g" cx="60.676" cy="20.768" r="106.44" gradientTransform="matrix(1.0361e-13 1 -.6564 6.7036e-14 74.288 -39.907)" gradientUnits="userSpaceOnUse"><stop stop-color="#FFCC80" offset="0"/><stop stop-color="#FFCB7D" offset=".2942"/><stop stop-color="#FFC774" offset=".4879"/><stop stop-color="#FFC166" offset=".6526"/><stop stop-color="#FFB850" offset=".8012"/><stop stop-color="#FFAD35" offset=".9375"/><stop stop-color="#FFA726" offset="1"/></radialGradient><path d="m117.5 56.14c4.21-3.85 14.28-23.01-4.45-40.17-6.3-5.78-20.55-11.97-36.64-11.97-24.41 0-55.53 12.41-67.63 40.2-17.43 40 15.48 79.8 55.84 79.8 18.59 0 38.95-11.46 47.23-23.08 0.52-0.73 1.09-1.42 1.63-2.13 2.04-2.65 6.01-10.02-7.34-15.64-5.93-2.5-6.66-8.26-5.93-11.13 2.19-8.67 9.65-8.89 17.29-15.88zm-29.87 43.38c-6.47 2.2-13.17-0.24-14.97-5.46-1.8-5.21 1.98-11.22 8.45-13.42s13.17 0.24 14.97 5.46c1.8 5.21-1.98 11.22-8.45 13.42z" fill="url(#g)"/><defs><path id="f" d="m117.5 56.14c4.21-3.85 14.28-23.01-4.45-40.17-6.3-5.78-20.55-11.97-36.64-11.97-24.41 0-55.53 12.41-67.63 40.2-17.43 40 15.48 79.8 55.84 79.8 18.59 0 38.95-11.46 47.23-23.08 0.52-0.73 1.09-1.42 1.63-2.13 2.04-2.65 6.01-10.02-7.34-15.64-5.93-2.5-6.66-8.26-5.93-11.13 2.19-8.67 9.65-8.89 17.29-15.88zm-29.87 43.38c-6.47 2.2-13.17-0.24-14.97-5.46-1.8-5.21 1.98-11.22 8.45-13.42s13.17 0.24 14.97 5.46c1.8 5.21-1.98 11.22-8.45 13.42z"/></defs><clipPath id="a"><use xlink:href="#f"/></clipPath><ellipse transform="matrix(.773 -.6344 .6344 .773 -54.686 39.806)" cx="28.28" cy="96.32" rx="16.05" ry="4.02" clip-path="url(#a)" fill="#FFA726" opacity=".2"/><path d="m11.6 101.76s24.05-24.13 32.07-20.11-20.04 28.15-20.04 28.15h-4.01l4.01 4.02s36.07-28.15 32.07-40.22-44.56 22.71-47.25 24.28l3.15 3.88z" clip-path="url(#a)" fill="#FFA726" opacity=".2"/><path d="m1.51 87.52s33.55-26.8 66.59-29.98c0 0 10.51-2.34 8.18 5.69-2.34 8.04-14.35 36.51-44.23 56.1l-3.5-2.51s51.07-35.67 34.55-51.92c0 0-1.84-3.01-12.68 1.34s-47.41 28.98-47.41 28.98l-1.5-7.7z" clip-path="url(#a)" fill="#FFA726" opacity=".2"/><path d="m-3.32 78.52s24.17-17.06 51.62-26.1 38.51-26.72 38.51-26.72 0.2 16.03-42.81 32.89-43.63 25.28-43.63 25.28l-3.69-5.35z" clip-path="url(#a)" fill="#FFA726" opacity=".2"/><path d="m65.55 3.48s-38.92 46.04-59.2 35.35l-3.69 7.19s34.21 4.32 68-42.96l-5.11 0.42z" clip-path="url(#a)" fill="#FFA726" opacity=".2"/><path d="m0.43 56.8s29.29-4.11 46.7-15.83 26.21-32.67 53.46-31.65l5.53 2.26s-17.82-3.91-32.57 13.57-18.43 18.91-31.54 23.64-44.45 11.71-44.45 11.71l2.87-3.7z" clip-path="url(#a)" fill="#FFA726" opacity=".2"/><path d="m118.73 20.26s-20.99 11.96-27.47 20.03c0 0 25.4-12.74 32.92-11.18l-5.45-8.85z" clip-path="url(#a)" fill="#FFA726" opacity=".2"/><path d="m124.23 35.19s-39.26 14.23-48.73 39.88-22.11 33.43-24.99 34.87c-2.87 1.44-18.67 15.27-18.96 16.43l11.78 2.31s26.42-22.48 29.29-38.04 17.99-37.27 55.63-53.72l-4.02-1.73z" clip-path="url(#a)" fill="#FFA726" opacity=".2"/><path d="m82.16 95.93s-10.63 25.36-30.16 41.21c0 0 22.4-10.38 36.48-38.91l-6.32-2.3z" clip-path="url(#a)" fill="#FFA726" opacity=".2"/><path d="m106.95 83.37s-8.36 34.02-23.47 42.43c0 0 20.9-1.83 30.54-43.53l-7.07 1.1z" clip-path="url(#a)" fill="#FFA726" opacity=".2"/><g opacity=".2"><path d="m76.41 7c14.71 0 28.55 5.63 34.62 11.19 6.62 6.07 9.98 12.9 9.97 20.31-0.01 7.78-3.79 13.86-5.52 15.43-2.56 2.34-5.09 3.85-7.55 5.31-4.59 2.74-8.93 5.33-10.62 12.05-1.04 4.14 0.14 11.45 7.68 14.63 4.36 1.84 6.97 3.97 7.55 6.18 0.52 1.96-0.67 3.89-1.42 4.86-0.17 0.22-0.34 0.43-0.51 0.65-0.39 0.5-0.8 1.01-1.19 1.57-7.49 10.49-26.74 21.82-44.8 21.82-19.6 0-38.4-10.1-49.05-26.36-9.73-14.86-11.2-32.8-4.04-49.24 5.28-12.12 14.91-22.17 27.86-29.07 11.29-6.02 24.44-9.33 37.02-9.33m6.42 96.33c1.94 0 3.88-0.33 5.77-0.97 4.31-1.46 7.81-4.43 9.63-8.13 1.45-2.96 1.69-6.2 0.69-9.11-1.74-5.03-6.84-8.29-13-8.29-1.94 0-3.88 0.33-5.77 0.97-4.31 1.46-7.81 4.43-9.63 8.13-1.45 2.96-1.69 6.2-0.69 9.11 1.74 5.04 6.84 8.29 13 8.29m-6.42-99.33c-24.41 0-55.53 12.41-67.63 40.2-17.43 40 15.48 79.8 55.84 79.8 18.59 0 38.95-11.46 47.23-23.08 0.52-0.73 1.09-1.42 1.63-2.13 2.04-2.65 6.01-10.02-7.34-15.64-5.93-2.5-6.66-8.26-5.93-11.13 2.18-8.67 9.64-8.9 17.28-15.88 4.21-3.85 14.28-23.01-4.45-40.17-6.29-5.78-20.54-11.97-36.63-11.97zm6.42 96.33c-4.7 0-8.81-2.35-10.17-6.26-1.8-5.21 1.98-11.22 8.45-13.42 1.61-0.55 3.24-0.81 4.8-0.81 4.7 0 8.81 2.35 10.17 6.27 1.8 5.21-1.98 11.22-8.45 13.42-1.61 0.54-3.24 0.8-4.8 0.8z" fill="#424242"/></g><ellipse transform="matrix(.9546 -.2979 .2979 .9546 -4.2463 19.712)" cx="62.54" cy="23.78" rx="12.82" ry="10.28" fill="#C62828"/><radialGradient id="e" cx="59.167" cy="13.833" r="17.099" gradientTransform="matrix(1.0287e-13 1 -.7798 8.0216e-14 69.954 -45.333)" gradientUnits="userSpaceOnUse"><stop stop-color="#EF5350" offset="0"/><stop stop-color="#E94B49" offset=".3459"/><stop stop-color="#D73534" offset=".8869"/><stop stop-color="#D32F2F" offset="1"/></radialGradient><path d="m72.86 18.74c1.61 5.27-2.47 11.21-9.13 13.26s-13.37-0.56-14.98-5.83 2.47-11.21 9.13-13.26 13.36 0.56 14.98 5.83z" fill="url(#e)"/><ellipse transform="matrix(.9546 -.2979 .2979 .9546 -11.931 12.447)" cx="34.87" cy="45.37" rx="12.94" ry="10.34" fill="#1565C0"/><radialGradient id="d" cx="31.522" cy="35.116" r="20.387" gradientTransform="matrix(1.0287e-13 1 -.7798 8.0216e-14 58.905 3.5937)" gradientUnits="userSpaceOnUse"><stop stop-color="#42A5F5" offset="0"/><stop stop-color="#3B9DEF" offset=".2859"/><stop stop-color="#2787DE" offset=".7328"/><stop stop-color="#1976D2" offset="1"/></radialGradient><path d="m45.56 40.15c1.66 5.41-2.54 11.49-9.36 13.6s-13.7-0.57-15.36-5.98 2.54-11.49 9.36-13.6 13.7 0.57 15.36 5.98z" fill="url(#d)"/><ellipse transform="matrix(.9546 -.2979 .2979 .9546 -21.184 11.599)" cx="27.45" cy="75.28" rx="13.3" ry="10.67" fill="#F9A825"/><radialGradient id="c" cx="24.833" cy="65.667" r="21.006" gradientTransform="matrix(1.0287e-13 1 -.7798 8.0216e-14 76.04 40.833)" gradientUnits="userSpaceOnUse"><stop stop-color="#FFEB3B" offset="0"/><stop stop-color="#FFEB3B" offset=".436"/><stop stop-color="#FEE238" offset=".6129"/><stop stop-color="#FCCA30" offset=".8995"/><stop stop-color="#FBC02D" offset="1"/></radialGradient><path d="m38.52 70.58c1.61 5.27-2.47 11.21-9.13 13.26s-13.37-0.56-14.98-5.83 2.47-11.21 9.13-13.26c6.66-2.06 13.37 0.55 14.98 5.83z" fill="url(#c)"/><ellipse transform="matrix(.9545 -.2983 .2983 .9545 -28.562 19.098)" cx="48.29" cy="103.12" rx="12.68" ry="10.34" fill="#558B2F"/><radialGradient id="b" cx="45" cy="93.5" r="17.099" gradientTransform="matrix(1.0287e-13 1 -.7798 8.0216e-14 117.91 48.5)" gradientUnits="userSpaceOnUse"><stop stop-color="#8BC34A" offset="0"/><stop stop-color="#83BB46" offset=".3459"/><stop stop-color="#6DA53B" offset=".8869"/><stop stop-color="#689F38" offset="1"/></radialGradient><path d="m58.69 98.41c1.61 5.27-2.47 11.21-9.13 13.26s-13.37-0.56-14.98-5.83 2.47-11.21 9.13-13.26 13.37 0.56 14.98 5.83z" fill="url(#b)"/></svg>

<svg width="128" height="128" style="enable-background:new 0 0 128 128;" xmlns="http://www.w3.org/2000/svg" xmlns:xlink="http://www.w3.org/1999/xlink">
  <radialGradient id="SVGID_1_" cx="60.676" cy="20.768" gradientTransform="matrix(4.532387e-11 1 -0.6564 2.932471e-11 74.2875 -39.9072)" gradientUnits="userSpaceOnUse" r="106.441">
    <stop offset="0" style="stop-color:#FFCC80"/>
    <stop offset="0.2942" style="stop-color:#FFCB7D"/>
    <stop offset="0.4879" style="stop-color:#FFC774"/>
    <stop offset="0.6526" style="stop-color:#FFC166"/>
    <stop offset="0.8012" style="stop-color:#FFB850"/>
    <stop offset="0.9375" style="stop-color:#FFAD35"/>
    <stop offset="1" style="stop-color:#FFA726"/>
  </radialGradient>
  <path d="M117.5,56.14c4.21-3.85,14.28-23.01-4.45-40.17C106.75,10.19,92.5,4,76.41,4 C52,4,20.88,16.41,8.78,44.2C-8.65,84.2,24.26,124,64.62,124c18.59,0,38.95-11.46,47.23-23.08c0.52-0.73,1.09-1.42,1.63-2.13 c2.04-2.65,6.01-10.02-7.34-15.64c-5.93-2.5-6.66-8.26-5.93-11.13C102.4,63.35,109.86,63.13,117.5,56.14z M87.63,99.52 c-6.47,2.2-13.17-0.24-14.97-5.46c-1.8-5.21,1.98-11.22,8.45-13.42c6.47-2.2,13.17,0.24,14.97,5.46 C97.88,91.31,94.1,97.32,87.63,99.52z" style="fill:url(#SVGID_1_);"/>
  <g>
    <defs>
      <path id="SVGID_2_" d="M117.5,56.14c4.21-3.85,14.28-23.01-4.45-40.17C106.75,10.19,92.5,4,76.41,4C52,4,20.88,16.41,8.78,44.2 C-8.65,84.2,24.26,124,64.62,124c18.59,0,38.95-11.46,47.23-23.08c0.52-0.73,1.09-1.42,1.63-2.13c2.04-2.65,6.01-10.02-7.34-15.64 c-5.93-2.5-6.66-8.26-5.93-11.13C102.4,63.35,109.86,63.13,117.5,56.14z M87.63,99.52c-6.47,2.2-13.17-0.24-14.97-5.46 c-1.8-5.21,1.98-11.22,8.45-13.42c6.47-2.2,13.17,0.24,14.97,5.46C97.88,91.31,94.1,97.32,87.63,99.52z"/>
    </defs>
    <clipPath id="SVGID_3_">
      <use style="overflow:visible;" xlink:href="#SVGID_2_"/>
    </clipPath>
    <path d="M40.69,86.14c-1.4-1.72-8.09,1.45-14.95,7.07 c-6.86,5.62-11.28,11.58-9.88,13.3c1.4,1.72,8.09-1.45,14.95-7.07S42.09,87.86,40.69,86.14z" style="opacity:0.2;clip-path:url(#SVGID_3_);fill:#FFA726;"/>
    <path d="M11.6,101.76c0,0,24.05-24.13,32.07-20.11 c8.02,4.02-20.04,28.15-20.04,28.15h-4.01l4.01,4.02c0,0,36.07-28.15,32.07-40.22S11.14,96.31,8.45,97.88L11.6,101.76z" style="opacity:0.2;clip-path:url(#SVGID_3_);fill:#FFA726;"/>
    <path d="M1.51,87.52c0,0,33.55-26.8,66.59-29.98 c0,0,10.51-2.34,8.18,5.69c-2.34,8.04-14.35,36.51-44.23,56.1l-3.5-2.51c0,0,51.07-35.67,34.55-51.92c0,0-1.84-3.01-12.68,1.34 S3.01,95.22,3.01,95.22L1.51,87.52z" style="opacity:0.2;clip-path:url(#SVGID_3_);fill:#FFA726;"/>
    <path d="M-3.32,78.52c0,0,24.17-17.06,51.62-26.1 S86.81,25.7,86.81,25.7S87.01,41.73,44,58.59S0.37,83.87,0.37,83.87L-3.32,78.52z" style="opacity:0.2;clip-path:url(#SVGID_3_);fill:#FFA726;"/>
    <path d="M65.55,3.48c0,0-38.92,46.04-59.2,35.35l-3.69,7.19 c0,0,34.21,4.32,68-42.96L65.55,3.48z" style="opacity:0.2;clip-path:url(#SVGID_3_);fill:#FFA726;"/>
    <path d="M0.43,56.8c0,0,29.29-4.11,46.7-15.83S73.34,8.3,100.59,9.32 l5.53,2.26c0,0-17.82-3.91-32.57,13.57S55.12,44.06,42.01,48.79S-2.44,60.5-2.44,60.5L0.43,56.8z" style="opacity:0.2;clip-path:url(#SVGID_3_);fill:#FFA726;"/>
    <path d="M118.73,20.26c0,0-20.99,11.96-27.47,20.03 c0,0,25.4-12.74,32.92-11.18L118.73,20.26z" style="opacity:0.2;clip-path:url(#SVGID_3_);fill:#FFA726;"/>
    <path d="M124.23,35.19c0,0-39.26,14.23-48.73,39.88 s-22.11,33.43-24.99,34.87c-2.87,1.44-18.67,15.27-18.96,16.43l11.78,2.31c0,0,26.42-22.48,29.29-38.04s17.99-37.27,55.63-53.72 L124.23,35.19z" style="opacity:0.2;clip-path:url(#SVGID_3_);fill:#FFA726;"/>
    <path d="M82.16,95.93c0,0-10.63,25.36-30.16,41.21 c0,0,22.4-10.38,36.48-38.91L82.16,95.93z" style="opacity:0.2;clip-path:url(#SVGID_3_);fill:#FFA726;"/>
    <path d="M106.95,83.37c0,0-8.36,34.02-23.47,42.43 c0,0,20.9-1.83,30.54-43.53L106.95,83.37z" style="opacity:0.2;clip-path:url(#SVGID_3_);fill:#FFA726;"/>
  </g>
  <g style="opacity:0.2;">
    <path d="M76.41,7c14.71,0,28.55,5.63,34.62,11.19c6.62,6.07,9.98,12.9,9.97,20.31 c-0.01,7.78-3.79,13.86-5.52,15.43c-2.56,2.34-5.09,3.85-7.55,5.31c-4.59,2.74-8.93,5.33-10.62,12.05 c-1.04,4.14,0.14,11.45,7.68,14.63c4.36,1.84,6.97,3.97,7.55,6.18c0.52,1.96-0.67,3.89-1.42,4.86c-0.17,0.22-0.34,0.43-0.51,0.65 c-0.39,0.5-0.8,1.01-1.19,1.57C101.93,109.67,82.68,121,64.62,121c-19.6,0-38.4-10.1-49.05-26.36C5.84,79.78,4.37,61.84,11.53,45.4 c5.28-12.12,14.91-22.17,27.86-29.07C50.68,10.31,63.83,7,76.41,7 M82.83,103.33c1.94,0,3.88-0.33,5.77-0.97 c4.31-1.46,7.81-4.43,9.63-8.13c1.45-2.96,1.69-6.2,0.69-9.11c-1.74-5.03-6.84-8.29-13-8.29c-1.94,0-3.88,0.33-5.77,0.97 c-4.31,1.46-7.81,4.43-9.63,8.13c-1.45,2.96-1.69,6.2-0.69,9.11C71.57,100.08,76.67,103.33,82.83,103.33 M76.41,4 C52,4,20.88,16.41,8.78,44.2C-8.65,84.2,24.26,124,64.62,124c18.59,0,38.95-11.46,47.23-23.08c0.52-0.73,1.09-1.42,1.63-2.13 c2.04-2.65,6.01-10.02-7.34-15.64c-5.93-2.5-6.66-8.26-5.93-11.13c2.18-8.67,9.64-8.9,17.28-15.88 c4.21-3.85,14.28-23.01-4.45-40.17C106.75,10.19,92.5,4,76.41,4L76.41,4z M82.83,100.33c-4.7,0-8.81-2.35-10.17-6.26 c-1.8-5.21,1.98-11.22,8.45-13.42c1.61-0.55,3.24-0.81,4.8-0.81c4.7,0,8.81,2.35,10.17,6.27c1.8,5.21-1.98,11.22-8.45,13.42 C86.02,100.07,84.39,100.33,82.83,100.33L82.83,100.33z" style="fill:#424242;"/>
  </g>
  <path d="M74.79,20.01c1.66,5.43-2.48,11.52-9.24,13.6s-13.6-0.62-15.26-6.05c-1.66-5.43,2.48-11.52,9.24-13.6 S73.13,14.58,74.79,20.01z" style="fill:#C62828;"/>
  <radialGradient id="SVGID_4_" cx="59.1667" cy="13.8333" gradientTransform="matrix(4.499940e-11 1 -0.7798 3.509018e-11 69.9538 -45.3333)" gradientUnits="userSpaceOnUse" r="17.0986">
    <stop offset="0" style="stop-color:#EF5350"/>
    <stop offset="0.3459" style="stop-color:#E94B49"/>
    <stop offset="0.8869" style="stop-color:#D73534"/>
    <stop offset="1" style="stop-color:#D32F2F"/>
  </radialGradient>
  <path d="M72.86,18.74c1.61,5.27-2.47,11.21-9.13,13.26s-13.37-0.56-14.98-5.83s2.47-11.21,9.13-13.26 S71.24,13.47,72.86,18.74z" style="fill:url(#SVGID_4_);"/>
  <path d="M47.24,41.56c1.67,5.46-2.51,11.6-9.34,13.7c-6.83,2.11-13.72-0.62-15.4-6.08 c-1.67-5.46,2.51-11.6,9.34-13.7C38.67,33.37,45.57,36.09,47.24,41.56z" style="fill:#1565C0;"/>
  <radialGradient id="SVGID_5_" cx="31.522" cy="35.1157" gradientTransform="matrix(4.499940e-11 1 -0.7798 3.509018e-11 58.905 3.5937)" gradientUnits="userSpaceOnUse" r="20.3866">
    <stop offset="0" style="stop-color:#42A5F5"/>
    <stop offset="0.2859" style="stop-color:#3B9DEF"/>
    <stop offset="0.7328" style="stop-color:#2787DE"/>
    <stop offset="1" style="stop-color:#1976D2"/>
  </radialGradient>
  <path d="M45.56,40.15c1.66,5.41-2.54,11.49-9.36,13.6s-13.7-0.57-15.36-5.98s2.54-11.49,9.36-13.6 S43.9,34.74,45.56,40.15z" style="fill:url(#SVGID_5_);"/>
  <path d="M40.17,71.37c1.73,5.63-2.57,11.96-9.59,14.12c-7.02,2.16-14.11-0.65-15.84-6.28 c-1.73-5.63,2.57-11.96,9.59-14.12C31.35,62.92,38.44,65.73,40.17,71.37z" style="fill:#F9A825;"/>
  <radialGradient id="SVGID_6_" cx="24.8333" cy="65.6667" gradientTransform="matrix(4.499940e-11 1 -0.7798 3.509018e-11 76.0397 40.8333)" gradientUnits="userSpaceOnUse" r="21.006">
    <stop offset="0" style="stop-color:#FFEB3B"/>
    <stop offset="0.436" style="stop-color:#FFEB3B"/>
    <stop offset="0.6129" style="stop-color:#FEE238"/>
    <stop offset="0.8995" style="stop-color:#FCCA30"/>
    <stop offset="1" style="stop-color:#FBC02D"/>
  </radialGradient>
  <path d="M38.52,70.58c1.61,5.27-2.47,11.21-9.13,13.26c-6.66,2.05-13.37-0.56-14.98-5.83 s2.47-11.21,9.13-13.26C30.2,62.69,36.91,65.3,38.52,70.58z" style="fill:url(#SVGID_6_);"/>
  <path d="M60.4,99.38c1.67,5.46-2.4,11.56-9.09,13.62c-6.69,2.06-13.47-0.69-15.14-6.15 c-1.67-5.46,2.4-11.56,9.09-13.62S58.73,93.92,60.4,99.38z" style="fill:#558B2F;"/>
  <radialGradient id="SVGID_7_" cx="45" cy="93.5" gradientTransform="matrix(4.499940e-11 1 -0.7798 3.509018e-11 117.9106 48.5)" gradientUnits="userSpaceOnUse" r="17.0986">
    <stop offset="0" style="stop-color:#8BC34A"/>
    <stop offset="0.3459" style="stop-color:#83BB46"/>
    <stop offset="0.8869" style="stop-color:#6DA53B"/>
    <stop offset="1" style="stop-color:#689F38"/>
  </radialGradient>
  <path d="M58.69,98.41c1.61,5.27-2.47,11.21-9.13,13.26c-6.66,2.05-13.37-0.56-14.98-5.83 s2.47-11.21,9.13-13.26C50.37,90.53,57.08,93.14,58.69,98.41z" style="fill:url(#SVGID_7_);"/>
</svg>
